X:294
T:Lassie Won't You Dance Wi' Me #3 
C:Joe Buchanan's Scottish Tome - Page 438.1
I:438 1
Z:Carl Allison
S:Boston Two-Step
R:Jig
L:1/8
M:4/4
K:C
((3GAB) | S c2 c c2 B | A2 G G2 A | G2 E D2 C | F6 | 
d2 d d2 c | B2 c B2 A | G2 G AGF | E6 ((3GAB) |
c2 c c2 B | A2 G G2 A | G2 E D2 C | A6 | 
A A2 B d2 | c A2 G G2 | c B2 G ((3GAB) | c6 !fine!:|
C2 D | E2 D C2 D | E2 D C2 D | E2 D C2 D | E4 D>E | 
F2 E D2 E | F2 E D2 E | F2 E D2 E | F4 G>F |
E2 D C2 D | E2 D C2 D |  E2 D C2 D | E4 E<E | 
D2 E ^F2 D | G2 A B2 c | d2 c B2 A | G4 ((3GAB) S|]

